!!!COM: Haydn, Franz Joseph
!!!OTL: String Quartet in B Minor
!!!OPS: Opus 33
!!!ONM: No. 1
!!!OMD: Allegro moderato
!!!OMV: 1
!!!SCT: H III:37
!!!SCA: Thematisch-bibliographisches Werkevererzeichnis (A. van Hoboken)
!!!YOR: Trautwein Edition
!!!ENC: Frances Bennion
!!!CDT: 1732/3/31/-1809/5/31/
!!!CNT: Oesterreich
!!!YEC: Copyright (c) 1994, 2000 Center for Computer Assisted Research in the Humanities
!!!YEM: Rights to all derivative editions reserved.
!!!YEM: Refer to licensing agreement for further details.
!!!YEN: United States of America
**kern	**kern	**kern	**kern
*k[f#c#]	*k[f#c#]	*k[f#c#]	*k[f#c#]
*b:	*b:	*b:	*b:
*clefF4	*clefC3	*clefG	*clefG
*M4/4	*M4/4	*M4/4	*M4/4
2..r	2..r	2..r	2..r
8r	8r	8r	8dd
=1	=1	=1	=1
1r	1r	8r	4dd
.	.	8f# 8a	.
.	.	8a 8f#	8ff#
.	.	8a 8f#	16ee
.	.	.	16dd
.	.	8r	4cc#
.	.	8b 8g	.
.	.	8g 8b	8b
.	.	8g 8b	8b
=2	=2	=2	=2
2..r	1r	8r	4ee
.	.	8g	.
.	.	8e	8gg
.	.	8g	16ff#
.	.	.	16ee
.	.	8f#	4dd
.	.	8b	.
.	.	8a#	8cc#
8F#	.	8r	8r
=3	=3	=3	=3
4F#	8r	8r	8r
.	8a#	8cc#	8ee
8G	8a#	8cc#	8ee
16F#	4r	4r	4r
16E	.	.	.
4F#	.	.	.
.	8a#	8cc#	8gg
8G	8a#	8cc#	8gg
16F#	8r	8r	8r
16E	.	.	.
=4	=4	=4	=4
4F#	8r	8r	8r
.	8cc#	8ee	8aa#
8G	8cc#	8ee	8aa#
16F#	8cc#	8ee	8ccc#
16E	.	.	.
4F#	4cc#	4aa#	4eee
4G	4b	4bb	4ddd
=5	=5	=5	=5
1r	4.r	3..r	2..r
.	8g	.	.
.	[2g	.	.
.	.	24r	.
.	.	8b	.
.	.	[4b	.
.	.	.	8cc#
=6	=6	=6	=6
8r	2g]	2b]	4cc#
8E	.	.	.
8E	.	.	8ee
8E	.	.	16dd
.	.	.	16cc#
4F#	2f#	4d	4b
8r	.	8c#	8a#
8F#	.	8r	8r
=7	=7	=7	=7
4F#	8r	8r	8r
.	8a#	8cc#	8ee
8G	8a#	8cc#	8ee
16F#	4r	4r	4r
16E	.	.	.
4F#	.	.	.
.	8a#	8cc#	8gg
8G	8a#	8cc#	8gg
16F#	8r	8r	8r
16E	.	.	.
=8	=8	=8	=8
4F#	8r	8r	8r
.	8cc#	8ee	8aa#
8G	8cc#	8ee	8aa#
16F#	8cc#	8ee	8ccc#
16E	.	.	.
4F#	4cc#	4aa#	4eee
4G	4b	4bb	4ddd
=9	=9	=9	=9
1r	4.r	3..r	2..r
.	8e	.	.
.	[2e	.	.
.	.	24r	.
.	.	8g	.
.	.	[4g	.
.	.	.	8cc
=10	=10	=10	=10
8r	2e]	2g]	[6..cc
8E	.	.	.
8E	.	.	.
.	.	.	48cc]
.	.	.	16gg
8E	.	.	16ee
.	.	.	16cc
2F#	4d	4f#	4.b
.	4c#	4e	.
.	.	.	8a#
=11	=11	=11	=11
4BB	4f#	4B 4b 4d	4B 4b 4d
4FF#	4e	4cc# 4a#	16.ff#
.	.	.	32gg
.	.	.	16.ff#
.	.	.	32gg
4BB	4d	4b	8ff#
.	.	.	8dd
8r	8r	8r	8b
8F#	8f#	8a#	8cc#
=12	=12	=12	=12
8BB	8f#	8b	8dd
8F#	8f#	8a#	8cc#
2.r	8r	8r	8r
.	8B	8b	8dd
.	8A#	8cc#	8ee
.	8B	8b	8dd
.	4r	4r	4r
=13	=13	=13	=13
4E	4g 4B	4g 4b	4ee 4e 4b
4BB	4a 4B	4f# 4dd#	16.bb
.	.	.	32ccc
.	.	.	16.bb
.	.	.	32ccc
4E	4g 4B	4g 4ee	8bb
.	.	.	8gg
8r	8r	8r	8ee
8B	8b	8dd#	8ff#
=14	=14	=14	=14
8E	8b	8ee	8gg
8B	8b	8dd#	8ff#
2.r	8r	8r	8r
.	8e	8ee	8gg
.	8d#	8ff#	8aa
.	8e	8ee	8gg
.	4r	4r	4r
=15	=15	=15	=15
8.e	2cc#	2a#	8.gg
16f#	.	.	16aa
16.e	.	.	16.gg
32f#	.	.	32aa
16.e	.	.	16.gg
32f#	.	.	32aa
4d	4b	4b	8ff#
.	.	.	8dd
4r	4r	4r	8b
.	.	.	[8ff#
=16	=16	=16	=16
2.r	4.c#	4.a#	8ff#]
.	.	.	8ee#
.	.	.	8ee
.	8B	8b	8dd
.	4f#	8b	8dd
.	.	8a#	8cc#
4F#	4r	8r	8r
.	.	[8f#	8f#
=17	=17	=17	=17
[2F#	8r	8f#]	4g#
.	8B	8e#	.
.	8c#	8e	8a#
.	8B	8d	8b
8F#]	8F#	8d	8B
4.r	4.r	8c#	8A#
.	.	4r	8r
.	.	.	8dd
=18	=18	=18	=18
[1DD	2a	2f#	4dd
.	.	.	8ff#
.	.	.	16ee
.	.	.	16dd
.	2d	2g	4cc#
.	.	.	8b
.	.	.	8ee
=19	=19	=19	=19
1DD_	2g	2b	4ee
.	.	.	8gg
.	.	.	16ff#
.	.	.	16ee
.	2e	4.g	4dd
.	.	.	8cc#
.	.	8cc#	8aa
=20	=20	=20	=20
4DD]	4f#	4dd	[2aa
4r	8a	8ff#	.
.	16g	16ee	.
.	16f#	16dd	.
4AA	4f#	4dd	8..aa]
.	.	.	32bb
4r	8e	8cc#	16.aa
.	.	.	32bb
.	8g	8ee	16.aa
.	.	.	32bb
=21	=21	=21	=21
2c#	4g	4ee	[2aa
.	8b	8gg	.
.	16a	16ff#	.
.	16g	16ee	.
4.d	4g	4ee	8..aa]
.	.	.	32bb
.	8f#	8dd	16.aa
.	.	.	32bb
8c#	8e	8aa	16.aa
.	.	.	32aa
=22	=22	=22	=22
8B	8d	8.aa	2ddd
8B	8f#	.	.
.	.	16ddd	.
8B	8g	8bb	.
8B	8G	16aa	.
.	.	16gg	.
8A	8A	4gg	2ccc#
8A	8e	.	.
8A	8f#	8ff#	.
8A	8r	8ff#	.
=23	=23	=23	=23
8G	8r	8.ff#	2bb
8G	8d#	.	.
.	.	16bb	.
8G	4e	8gg	.
8G	.	16ff#	.
.	.	16ee	.
8F#	8r	4ee	2aa
8F#	8c#	.	.
8F#	4d	4dd	.
8F#	.	.	.
=24	=24	=24	=24
4E	2b	2dd	2gg#
8F#	.	.	.
16E	.	.	.
16D	.	.	.
4D	2a	2ee	2aa
8C#	.	.	.
8E	.	.	.
=25	=25	=25	=25
4G	2e	2a	2cc#
8B	.	.	.
16A	.	.	.
16G	.	.	.
4G	4.d	2a	4.dd
4F#	.	.	.
.	8f#	.	8dd
=26	=26	=26	=26
2..r	2..g	2b	4ee
.	.	.	8gg
.	.	.	16ff#
.	.	.	16ee
.	.	4.b-	4dd
.	.	.	8cc#
8f#	8f#	16a	8dd
.	.	16dd	.
=27	=27	=27	=27
2e	4b	4dd	4gg
.	4a	4cc#	8bb
.	.	.	16aa
.	.	.	16gg
2d	2a	2dd	4gg
.	.	.	8ff#
.	.	.	8aa
=28	=28	=28	=28
8F#	8a	8dd	8.ddd
8F#	8a	8dd	.
.	.	.	16ccc#
8F#	8a	8dd	16ddd
.	.	.	16ccc#
8F#	8d	8dd	16ddd
.	.	.	16aa#
8G	8d	8dd	8bb
8G	8B	8dd	8bb
8G	8B	8dd	8bb
8G	8b	8dd	8r
=29	=29	=29	=29
8A	8e	8cc#	8.gg
8A	8e	8cc#	.
.	.	.	16ff#
8A	8e	8cc#	16gg
.	.	.	16aa
8A	8e	8g	16bb
.	.	.	16cc#
8B	8d	8f#	8dd
8B	8d	8f#	8dd
8B	8d	8f#	8dd
8B	8d	8f#	8r
=30	=30	=30	=30
8F#	8a	8d	16ddd
.	.	.	16ccc#
8F#	8a	8dd	16ddd
.	.	.	16ccc#
8F#	8a	8dd	16ddd
.	.	.	16ccc#
8F#	8d	8dd	16ccc
.	.	.	16aa#
8G	8d	8dd	8bb
8G	8b	8dd	8bb
8G	8b	8dd	8bb
8r	8r	8r	8r
=31	=31	=31	=31
8A	8e	8cc#	8gg
8A	8e	8cc#	8gg
8A	8e	8cc#	8gg
8r	8r	8r	8r
8B	8d	8dd	8ff#
8r	8r	8r	8r
8G	8d	8dd	8bb
8r	8r	8r	8r
=32	=32	=32	=32
[2A	2d	2f#	24a
.	.	.	24dd
.	.	.	24ff#
.	.	.	24dd
.	.	.	24ff#
.	.	.	24aa
.	.	.	24dd
.	.	.	24ff#
.	.	.	24aa
.	.	.	24ff#
.	.	.	24aa
.	.	.	24ddd
8A]	8c#	8g	2ee
8A	8c#	8g	.
8A	8c#	8g	.
8A	8c#	8g	.
=33	=33	=33	=33
[1D	4d	8f#	8dd
.	.	8b	8ddd
.	2.r	8a	8ccc#
.	.	8g	8bb
.	.	8f#	8aa
.	.	8e#	8gg#
.	.	8f#	8aa
.	.	8g	8bb
=34	=34	=34	=34
4D]	4B	4g#	4.ee
4AA	8c#	8a	.
.	8e	8g	16aa
.	.	.	16cc#
8D	4d	8f#	8dd
8BB	.	8d	8dd
8AA	4r	8d	8cc#
8GG	.	8d	8b
=35	=35	=35	=35
8FF#	2r	2.d	8a
8EE#	.	.	8g#
8FF#	.	.	8a
8GG	.	.	8b
4GG#	4B	.	4.e
4AA	8A	8c#	.
.	8G	8e	16a
.	.	.	16c#
=36	=36	=36	=36
8D	8F#	24d	8d
.	.	24f#	.
.	.	24a	.
8D	8r	24d	8r
.	.	24f#	.
.	.	24a	.
8AA	8A	24e	8cc#
.	.	24g	.
.	.	24a	.
8AA	8r	24e	8r
.	.	24g	.
.	.	24a	.
8D	8A	24d	8dd
.	.	24f#	.
.	.	24a	.
8D	8r	24d	8r
.	.	24f#	.
.	.	24a	.
8AA	8A	24e	8.cc#
.	.	24g	.
.	.	24a	.
8AA	8r	24e	.
.	.	24g	.
.	.	.	32b
.	.	24a	.
.	.	.	32cc#
=37	=37	=37	=37
8D	8A	8f#	8dd
8r	8r	8r	8r
8AA	8A	8a 8gg	8ee 8ccc#
8r	8r	8r	8r
8DD	8d	8ff# 8a	8ff# 8ddd
4.r	4.r	4r	4.r
.	.	8a	.
=38	=38	=38	=38
4.F#	1c	4a	2..r
.	.	8cc	.
8G	.	16b	.
.	.	16a	.
2A	.	4g	.
.	.	4f#	.
.	.	.	8ff#
=39	=39	=39	=39
2..r	8r	8r	4ff#
.	8a	8cc	.
.	8a	8cc	8aa
.	8a	8cc	16gg
.	.	.	16ff#
.	4.a	4.cc	4ee
.	.	.	8dd#
8B	8g	8b	8ee
=40	=40	=40	=40
4B	8f#	8a	4ff#
.	4d#	4f#	.
8c	.	.	4r
16B	16e	16g	.
16A	16f#	16a	.
8G	8e	8b	8.bb
8G	8e	8b	.
.	.	.	16aa#
8G	8e	8b	16bb
.	.	.	16gg
8G	8e	8b	16ff#
.	.	.	16ee
=41	=41	=41	=41
8F#	8a	8b	8dd#
8F#	8a	8b	8dd#
8F#	8a	8b	8dd#
8F#	8a	8b	8r
8D#	8f#	8b	8.aa
8D#	8f#	8b	.
.	.	.	16gg#
8D#	8f#	8b	16aa
.	.	.	16bb
8D#	8f#	8b	16ccc
.	.	.	16ff#
=42	=42	=42	=42
8E	8e	8b	8gg
8E	8e	8b	8gg
8E	8e	8b	8gg
8E	2r	8b	8r
8G	.	8.b	2B
8G	.	.	.
.	.	16a#	.
8G	.	16b	.
.	.	16g	.
8G	8r	16f#	.
.	.	16e	.
=43	=43	=43	=43
8F#	8.cc	8d#	2A
8F#	.	8d#	.
.	16b	.	.
8F#	16cc	8d#	.
.	16b	.	.
8F#	16a	8r	.
.	16g	.	.
8D#	8f#	8.a	8r
8D#	8f#	.	8B
.	.	16g#	.
8D#	8f#	16a	8B
.	.	16b	.
8D#	8f#	16cc	8B
.	.	16a	.
=44	=44	=44	=44
8E	8g	8g	16bb
.	.	.	16aa#
8E	8g	8b	16bb
.	.	.	16ff#
8E	8g	8b	16gg
.	.	.	16dd#
8E	8g	8b	16ee
.	.	.	16a#
8E	8g	8b	16b
.	.	.	16f#
8E	8g	8b	16g
.	.	.	16d#
8E	8g	8b	16e
.	.	.	16g
8E	8g	8b	16b
.	.	.	16ee
=45	=45	=45	=45
8D	8e	8b 8g#	16bb
.	.	.	16aa#
8D	8e	8g# 8b	16bb
.	.	.	16ff#
8D	8e	8b 8g#	16gg#
.	.	.	16dd#
8D	8e	8b 8g#	16ee
.	.	.	16a#
8D	8e	8b 8g#	16b
.	.	.	16f#
8D	8e	8b 8g#	16g#
.	.	.	16d#
8D	8e	8b 8g#	16e
.	.	.	16g#
8D	8e	8b 8g#	16b
.	.	.	16ee
=46	=46	=46	=46
8C#	8e#	8b 8g#	16bb
.	.	.	16aa#
8C#	8e#	8b 8g#	16bb
.	.	.	16ee#
8C#	8e#	8b 8g#	16gg#
.	.	.	16b
8C#	8e#	8b 8g#	16dd
.	.	.	16g#
8C#	8e#	8b 8g#	16b
.	.	.	16e#
8C#	8e#	8b 8g#	16g#
.	.	.	16B#
8C#	8e#	8b 8g#	16c#
.	.	.	16e#
8C#	8e#	8b 8g#	16g#
.	.	.	16b
=47	=47	=47	=47
8C#	8f#	8a	16aa
.	.	.	16gg#
8C#	8f#	8a	16aa
.	.	.	16ee#
8C#	8f#	8a	16ff#
.	.	.	16b#
8C#	8f#	8a	16cc#
.	.	.	16g#
8C#	8f#	8a	16a
.	.	.	16e#
8C#	8f#	8a	16f#
.	.	.	16a
8C#	8f#	8a	16cc#
.	.	.	16ff#
8C#	8f#	8a	16aa
.	.	.	16ff#
=48	=48	=48	=48
8C#	8c#	16e#	16ccc#
.	.	16f#	16bb#
8C#	8c#	16e#	16ccc#
.	.	16c#	16gg#
8C#	8c#	16f#	16aa
.	.	16e#	16gg#
8C#	8c#	16f#	16aa
.	.	16a	16ff#
8C#	8c#	16e#	16ccc#
.	.	16f#	16bb#
8C#	8c#	16e#	16ccc#
.	.	16cc#	16gg#
8C#	8f#	16f#	16aa
.	.	16e#	16gg#
8C#	8f#	16f#	16aa
.	.	16a	16ff#
=49	=49	=49	=49
8C#	8e#	8g#	8ccc#
8C#	8f#	8a	8ccc#
8C#	8e#	8g#	8ccc#
8C#	8f#	8a	8ccc#
8C#	8e#	8g#	8ccc#
4.r	4.r	4r	4r
.	.	8c#	8a
=50	=50	=50	=50
[1AA	2E	2c#	4a
.	.	.	8cc#
.	.	.	16b
.	.	.	16a
.	2D	2d	4g#
.	.	.	8f#
.	.	.	8dd
=51	=51	=51	=51
1AA]	1d	2f#	4dd
.	.	.	8ff#
.	.	.	16ee
.	.	.	16dd
.	.	2g#	4cc#
.	.	.	8b
.	.	.	8ee
=52	=52	=52	=52
4AA	4c#	4a	[2ee
4r	8e	8cc#	.
.	16d	16b	.
.	16c#	16a	.
4E	4c#	4a	8..ee]
.	.	.	32ff#
4r	8B	8g#	16.ee
.	.	.	32ff#
.	8d	8b	16.ee
.	.	.	32ff#
=53	=53	=53	=53
2G#	4d	4b	[3..ee
.	8f#	8dd	.
.	16e	16cc#	.
.	16d	16b	.
2A	4d	4b	.
.	.	.	96ee]
.	.	.	32ff#
.	.	.	16.ee
.	.	.	32ff#
.	8c#	8a	8ee
.	8a	8c#	8ee
=54	=54	=54	=54
8g	8a	2c#	4ee
8g	8a	.	.
8g	8a	.	8gg
8g	8a	.	16ff#
.	.	.	16ee
8f#	8a	2d	4ee
8f#	8a	.	.
8f#	8a	.	8dd
8r	8f#	.	8dd
=55	=55	=55	=55
1r	8e	8g	4cc#
.	8e	8g	.
.	8e	8g	8ee
.	8e	8g	16dd
.	.	.	16cc#
.	8d	8f#	4cc#
.	8d	8f#	.
.	8d	8f#	8b
.	8d	8f#	8b
=56	=56	=56	=56
1r	2d	4f#	2b#
.	.	8a	.
.	.	16g#	.
.	.	16f#	.
.	2c#	4f#	4.cc#
.	.	4e#	.
.	.	.	8b
=57	=57	=57	=57
1F#	4c#	4e	2a#
.	8e	8g	.
.	16d	16f#	.
.	16c#	16e	.
.	4c#	4e	2b
.	8B	8d	.
.	8c#	8c#	.
=58	=58	=58	=58
2GG 2G	2.d	4B	2e#
.	.	8d	.
.	.	16c#	.
.	.	16B	.
2FF#	.	4B	4.f#
.	8c#	8A#	.
.	8r	8r	8dd
=59	=59	=59	=59
1r	8r	8r	4dd
.	8f#	8a	.
.	8f#	8a	8ff#
.	8f#	8a	16ee
.	.	.	16dd
.	8r	8r	4cc#
.	8g	8b	.
.	8g	8b	8b
.	8g	8b	8b
=60	=60	=60	=60
2..r	8r	8r	4ee
.	8g	8b	.
.	8g	8b	8gg
.	8g	8b	16ff#
.	.	.	16ee
.	4f#	4b	4dd
.	4r	8a#	8cc#
8F#	.	8r	8r
=61	=61	=61	=61
4F#	8r	8r	8r
.	8a#	8cc#	8ee
8G	8a#	8cc#	8ee
16F#	8r	4r	4r
16E	.	.	.
4F#	8r	.	.
.	8a#	8cc#	8gg
8G	8a#	8cc#	8gg
16F#	8r	8r	8r
16E	.	.	.
=62	=62	=62	=62
4F#	8r	8r	8r
.	8cc#	8ee	8aa#
8G	8cc#	8ee	8aa#
16F#	8cc#	8ee	8ccc#
16E	.	.	.
4F#	4cc#	4aa#	4eee
4G	4b	4bb	4ddd
=63	=63	=63	=63
1r	4.r	3..r	2..r
.	8g	.	.
.	[2g	.	.
.	.	24r	.
.	.	8b	.
.	.	[4b	.
.	.	.	8cc#
=64	=64	=64	=64
8r	2g]	2b]	4cc#
8E	.	.	.
8E	.	.	8ee
8E	.	.	16dd
.	.	.	16cc#
4F#	4.f#	4d	4b
4r	.	8c#	8a#
.	8e	8r	8r
=65	=65	=65	=65
2r	[2e	8r	4.r
.	.	8g	.
.	.	4.g	.
.	.	.	8cc
8r	8e]	.	8cc
8c 8E	8g 8cc	8ee 8cc	8gg 8cc 8e
8c 8E	8cc 8g	8ee 8cc	8gg 8cc 8e
8r	8f#	8r	8r
=66	=66	=66	=66
2r	[2f#	8r	4.r
.	.	8a	.
.	.	4.a	.
.	.	.	8cc
8r	8f#]	.	8cc
8A 8F#	8d#	8dd# 8f#	8aa
8A 8F#	8d#	8dd# 8f#	8aa
8r	8g	8r	8r
=67	=67	=67	=67
2r	[2g	8r	4.r
.	.	8b	.
.	.	4.b	.
.	.	.	8ee
8r	8g]	.	8ee
8G 8GG	8G 8e	8b 8ee 8e	8bb 8b
8G 8GG	8e 8G	8ee 8b 8e	8bb 8b
8r	8g#	8r	8r
=68	=68	=68	=68
2r	[2g#	8r	4.r
.	.	8b	.
.	.	4.b	.
.	.	.	8ee#
8r	8g#]	.	8ee#
8G#	8d	8ee# 8g#	8bb 8b
8G#	8d	8ee# 8g#	8bb 8b
8r	8r	8r	8r
=69	=69	=69	=69
8r	8r	8r	8r
8F#	8A#	8ff# 8cc# 8f#	8aa# 8cc# 8f#
8F#	8A#	8ff# 8f# 8cc#	8aa# 8cc# 8f#
2r	4r	4r	4r
.	8g	8b	8ee#
.	8g	8b	8ee#
8r	8r	8r	8r
=70	=70	=70	=70
2r	8r	8r	8r
.	8f#	8a#	8ff#
.	8f#	8a#	8ff#
.	2r	4r	4r
8r	.	.	.
8EE#	.	8B	8d
8EE#	.	8B	8d
8r	8r	8r	8r
=71	=71	=71	=71
8r	1r	8r	8r
8FF#	.	8A#	8c#
8FF#	.	8A#	8c#
2r	.	3..r	3..r
8r	.	.	.
.	.	24r	24r
=72	=72	=72	=72
4BB	4f# 4B	4b 4d 4B	4B 4b 4d
4FF#	4e 4c#	4cc# 4a#	16.ff#
.	.	.	32gg
.	.	.	16.ff#
.	.	.	32gg
4BB	4d	4b	8ff#
.	.	.	8dd
8r	8r	8r	8b
8F#	8f#	8a#	8cc#
=73	=73	=73	=73
8BB	8f#	8b	8dd
8F#	8f#	8a#	8cc#
2.r	8r	8r	8r
.	8B	8f#	8dd
.	8A#	8g	8ee
.	8B	8f#	8dd
.	4r	4r	4r
=74	=74	=74	=74
4E	4g 4B	4b 4g	4e 4ee 4b
4BB	4B 4a	4dd# 4f#	16.bb
.	.	.	32ccc
.	.	.	16.bb
.	.	.	32ccc
4E	4g 4B	4ee 4g	8bb
.	.	.	8gg
8r	8r	8r	8ee
8B	8b	8dd#	8ff#
=75	=75	=75	=75
8E	8b	8ee	8gg
8B	8b	8dd#	8ff#
2.r	8r	8r	8r
.	8e	8b	8gg
.	8d#	8cc	8aa
.	8e	8b	8gg
.	4r	4r	4r
=76	=76	=76	=76
8.e	2cc#	2a#	8.gg
16f#	.	.	16aa
16.e	.	.	16.gg
32f#	.	.	32aa
16.e	.	.	16.gg
32f#	.	.	32aa
4d	4b	4b	8ff#
.	.	.	8dd
4r	4r	4r	8b
.	.	.	[8ff#
=77	=77	=77	=77
2r	4.c#	4.a#	8ff#]
.	.	.	8ee#
.	.	.	8ee
.	8B	8b	8dd
[4F#	4f#	8b	8dd
.	.	8a#	8cc#
16.F#]	4r	4r	[4ff#
32G	.	.	.
16.F#	.	.	.
32G	.	.	.
=78	=78	=78	=78
8F#	4r	[3f#	16.ff#]
.	.	.	32gg
8D	.	.	16.ff#
.	.	.	32gg
8BB	[4d	.	8ff#
.	.	96f#]	.
.	.	32g	.
8r	.	16.f#	8dd
.	.	32g	.
[4B	16.d]	8f#	8b
.	32e	.	.
.	16.d	8d	8r
.	32e	.	.
16.B]	8d	8B	[4bb
32c	.	.	.
16.B	8B	8r	.
32c	.	.	.
=79	=79	=79	=79
8B	4G	[3b	16.bb]
.	.	.	32ccc
8G	.	.	16.bb
.	.	.	32ccc
8E	[4g	.	8bb
.	.	96b]	.
.	.	32cc	.
8r	.	16.b	8gg
.	.	32cc	.
[4e	16.g]	8b	8ee
.	32a	.	.
.	16.g	8g	8r
.	32a	.	.
16.e]	8g	8e	[4gg
32f#	.	.	.
16.e	8e	8r	.
32f#	.	.	.
=80	=80	=80	=80
8e	8c#	4r	16.gg]
.	.	.	32aa
8c#	8r	.	16.gg
.	.	.	32aa
8A#	[4g	[3ee	8gg
8A#	.	.	8ee
[2A#	16.g]	.	8cc#
.	.	96ee]	.
.	32f#	32dd#	.
.	16.g	16.ee	8ee
.	32f#	32dd#	.
.	8g	8ee	8gg
.	8e	8cc#	8gg
=81	=81	=81	=81
1A#]	8c#	8a#	1gg
.	8e	8cc#	.
.	8g	8ee	.
.	8g	8ee	.
.	2e	2cc#	.
=82	=82	=82	=82
8D	8f#	8b	8.bb
8D	8f#	8b	.
.	.	.	16aa#
8D	8f#	8b	16bb
.	.	.	16aa#
8D	8f#	8b	16bb
.	.	.	16ff#
8E	8e	8b	8gg
8E	8e	8b	8gg
8E	8e	8b	8gg
8E	8e	8b	8r
=83	=83	=83	=83
8F#	8c#	8a#	8.ee
8F#	8c#	8a#	.
.	.	.	16dd#
8F#	8c#	8cc#	16ee
.	.	.	16ff#
8F#	8c#	8e	16gg
.	.	.	16a#
8G	8B	8d	8b
8G	8B	8d	8b
8G	8B	8d	8b
8G	8B	8d	8r
=84	=84	=84	=84
8D	8f#	8B	16bb
.	.	.	16aa#
8D	8f#	8b	16bb
.	.	.	16aa#
8D	8f#	8b	16bb
.	.	.	16aa#
8D#	8f#	8b	16aa
.	.	.	16ff#
8E	8e	8b	8gg
8E	8e	8b	8gg
8E	8e	8b	8gg
8r	8r	8r	8r
=85	=85	=85	=85
8F#	8c#	8a#	8ee
8F#	8c#	8a#	8ee
8F#	8c#	8a#	8ee
8r	8r	8r	8r
8G	8B	8b	8dd
8r	8r	8r	8r
8E	8e	8b	8gg
8r	8r	8r	8r
=86	=86	=86	=86
2F#	2d	2b	24d
.	.	.	24f#
.	.	.	24b
.	.	.	24f#
.	.	.	24b
.	.	.	24dd
.	.	.	24b
.	.	.	24dd
.	.	.	24ff#
.	.	.	24dd
.	.	.	24ff#
.	.	.	24bb
8FF#	8e	8a#	2cc#
8FF#	8e	8a#	.
8FF#	8e	8a#	.
8FF#	8e	8a#	.
=87	=87	=87	=87
[1BB	4d	8b	8b
.	.	8g	8bb
.	2.r	8f#	8aa
.	.	8e	8gg
.	.	8d	8ff#
.	.	8c#	8ee#
.	.	8d	8ff#
.	.	8e	8gg
=88	=88	=88	=88
4BB]	4G#	4e#	4.cc#
4FF#	8A#	8f#	.
.	8c#	8e	16ff#
.	.	.	16a#
8BB	4B	8d	8b
8GG	.	8B	8b
8FF#	4r	8B	8a
8EE	.	8B	8g
=89	=89	=89	=89
8DD	2r	2.B	8f#
8CC#	.	.	8e#
8DD	.	.	8f#
8EE	.	.	8g
4EE#	4G#	.	4.c#
8FF#	8F#	8A#	.
8FF#	8E	8c#	16f#
.	.	.	16A#
=90	=90	=90	=90
8BB	8D	24B	8B
.	.	24d	.
.	.	24f#	.
8BB	8r	24B	8r
.	.	24d	.
.	.	24f#	.
8FF#	8e	24c#	8a#
.	.	24e	.
.	.	24f#	.
8FF#	8r	24c#	8r
.	.	24e	.
.	.	24f#	.
8BB	8d	24B	8b
.	.	24d	.
.	.	24f#	.
8BB	8r	24B	8r
.	.	24d	.
.	.	24f#	.
8FF#	8a#	24c#	8.cc#
.	.	24e	.
.	.	24f#	.
8FF#	8r	24c#	.
.	.	24e	.
.	.	.	32b
.	.	24f#	.
.	.	.	32cc#
=91	=91	=91	=91
8BB	8b	8d	8dd
8r	8r	8r	8r
8FF#	8c# 8e	8cc# 8f#	8aa# 8cc#
8r	8r	8r	8r
8BB	8B 8d	8dd 8f#	8bb 8dd
4.r	4.r	4.r	4.r
==	==	==	==
*-	*-	*-	*-
!!!RWG1: This file contains only pitch and duration data.
!!!RWG2: Transposing instruments are not transposed.
!!!RWG3: Spines may have incompatible meters.
!!!RWG4: Durations of rests and tied notes may be interpreted.
!!!RWG: Key is interpreted using the Humdrum key tool.
!!!GTL: 6 Quators ("Jungfernquartette")
!!!AFT: stage1
!!!END: 1997/04/15
!!!KEY: 1464979006
!!!EMD: Converted from MuseData to Humdrum Dec 16, 2000, by Andreas Kornstaedt using muse2kern.
!!!EMD: Manual editing by Craig Sapp, Nov 2001
